svg/transformer.svg

<svg width="24" height="24" viewBox="0 0 24 24" xmlns="http://www.w3.org/2000/svg"><path d="M8 2H7v2h1c.7 0 1.2.6 1.2 1.2S8.7 6.5 8 6.5H7v2h1c.7 0 1.2.6 1.2 1.2S8.7 11 8 11H3v2h5c.7 0 1.2.6 1.2 1.2s-.5 1.3-1.2 1.3H7v2h1c.7 0 1.2.6 1.2 1.2S8.7 20 8 20H7v2h1c1.8 0 3.2-1.5 3.2-3.2 0-.9-.4-1.7-.9-2.2.6-.6.9-1.4.9-2.2 0-.8-.4-1.7-.9-2.2.6-.6.9-1.4.9-2.2 0-.8-.4-1.7-.9-2.2.6-.6.9-1.4.9-2.2C11.2 3.5 9.8 2 8 2zM16 13h5v-2h-5c-.7 0-1.2-.6-1.2-1.2s.6-1.2 1.2-1.2h1v-2h-1c-.7 0-1.2-.6-1.2-1.2S15.3 4 16 4h1V2h-1c-1.8 0-3.2 1.5-3.2 3.2 0 .9.4 1.7.9 2.2-.6.6-.9 1.4-.9 2.2 0 .8.4 1.7.9 2.2-.6.6-.9 1.4-.9 2.2 0 .8.4 1.7.9 2.2-.6.6-.9 1.4-.9 2.2 0 1.8 1.5 3.2 3.2 3.2h1v-2h-1c-.7 0-1.2-.6-1.2-1.2s.6-1.2 1.2-1.2h1v-2h-1c-.7 0-1.2-.6-1.2-1.2s.5-1 1.2-1z"/></svg>

<svg width="24" height="24" viewBox="0 0 24 24" xmlns="http://www.w3.org/2000/svg">
<path d="M8 2H7V4H8C8.7 4 9.2 4.6 9.2 5.2C9.2 5.8 8.7 6.5 8 6.5H7V8.5H8C8.7 8.5 9.2 9.1 9.2 9.7C9.2 10.3 8.7 11 8 11H3V13H8C8.7 13 9.2 13.6 9.2 14.2C9.2 14.8 8.7 15.5 8 15.5H7V17.5H8C8.7 17.5 9.2 18.1 9.2 18.7C9.2 19.3 8.7 20 8 20H7V22H8C9.8 22 11.2 20.5 11.2 18.8C11.2 17.9 10.8 17.1 10.3 16.6C10.9 16 11.2 15.2 11.2 14.4C11.2 13.6 10.8 12.7 10.3 12.2C10.9 11.6 11.2 10.8 11.2 10C11.2 9.2 10.8 8.3 10.3 7.8C10.9 7.2 11.2 6.4 11.2 5.6C11.2 3.5 9.8 2 8 2Z" />
<path d="M16 13H21V11H16C15.3 11 14.8 10.4 14.8 9.8C14.8 9.2 15.4 8.6 16 8.6H17V6.6H16C15.3 6.6 14.8 6 14.8 5.4C14.8 4.8 15.3 4 16 4H17V2H16C14.2 2 12.8 3.5 12.8 5.2C12.8 6.1 13.2 6.9 13.7 7.4C13.1 8 12.8 8.8 12.8 9.6C12.8 10.4 13.2 11.3 13.7 11.8C13.1 12.4 12.8 13.2 12.8 14C12.8 14.8 13.2 15.7 13.7 16.2C13.1 16.8 12.8 17.6 12.8 18.4C12.8 20.2 14.3 21.6 16 21.6H17V19.6H16C15.3 19.6 14.8 19 14.8 18.4C14.8 17.8 15.4 17.2 16 17.2H17V15.2H16C15.3 15.2 14.8 14.6 14.8 14C14.8 13.4 15.3 13 16 13Z" />
</svg>
